ix/folder_bold.svg

<svg viewBox="0 0 24 24" fill="none" xmlns="http://www.w3.org/2000/svg" height="1em" width="1em">
  <path d="M21.0169 7.99175C21.4148 8.55833 20.9405 9.25 20.2482 9.25H3C2.44772 9.25 2 8.80228 2 8.25V6.42C2 3.98 3.98 2 6.42 2H8.74C10.37 2 10.88 2.53 11.53 3.4L12.93 5.26C13.24 5.67 13.28 5.72 13.86 5.72H16.65C18.4546 5.72 20.0516 6.61709 21.0169 7.99175Z" fill="#292D32"/>
  <path d="M20.9834 10.75C21.5343 10.75 21.9815 11.1957 21.9834 11.7466L22 16.6503C22 19.6003 19.6 22.0003 16.65 22.0003H7.35C4.4 22.0003 2 19.6003 2 16.6503V11.7503C2 11.198 2.44771 10.7503 2.99999 10.7503L20.9834 10.75Z" fill="#292D32"/>
</svg>

<svg viewBox="0 0 24 24" fill="none" xmlns="http://www.w3.org/2000/svg" height="1em" width="1em">
  <path d="M21.017 7.992c.398.566-.076 1.258-.769 1.258H3a1 1 0 0 1-1-1V6.42C2 3.98 3.98 2 6.42 2h2.32c1.63 0 2.14.53 2.79 1.4l1.4 1.86c.31.41.35.46.93.46h2.79c1.805 0 3.402.897 4.367 2.272Zm-.034 2.758a1 1 0 0 1 1 .997L22 16.65C22 19.6 19.6 22 16.65 22h-9.3C4.4 22 2 19.6 2 16.65v-4.9a1 1 0 0 1 1-1h17.983Z" fill="#292D32"/>
</svg>
